tenants/vtwonen/icons/direction_down.svg

<svg fill="none" height="24" viewBox="0 0 24 24" width="24" xmlns="http://www.w3.org/2000/svg"><path d="m21.8424 7.4372-.317-.29205c-.2101-.19353-.5507-.19353-.7608 0l-8.7646 8.07415-8.7646-8.07415c-.21009-.19353-.55073-.19353-.76086 0l-.31697.29205c-.21009.19354-.21009.50735 0 .70089l9.46203 8.71671c.2101.1936.5507.1936.7608 0l9.462-8.71671c.2101-.19354.2101-.50735 0-.70089z" fill="#000"/></svg>

<svg width="24" height="24" viewBox="0 0 24 24" fill="none" xmlns="http://www.w3.org/2000/svg">
<path d="M21.8424 7.4372L21.5254 7.14515C21.3153 6.95162 20.9747 6.95162 20.7646 7.14515L12 15.2193L3.2354 7.14515C3.02531 6.95162 2.68467 6.95162 2.47454 7.14515L2.15757 7.4372C1.94748 7.63074 1.94748 7.94455 2.15757 8.13809L11.6196 16.8548C11.8297 17.0484 12.1703 17.0484 12.3804 16.8548L21.8424 8.13809C22.0525 7.94455 22.0525 7.63074 21.8424 7.4372Z" fill="black"/>
</svg>
